file/hellenic-petroleum.svg

<svg clip-rule="evenodd" fill-rule="evenodd" stroke-linejoin="round" stroke-miterlimit="1.41421" viewBox="0 0 560 400" xmlns="http://www.w3.org/2000/svg"><g transform="matrix(3.34336 0 0 3.34336 121.856 97.342)"><path d="m38.461 10.893c-1.48-.029-2.962-.207-4.117-.533 1.155-.325 2.637-.503 4.117-.533.059-.918.237-1.806.533-2.487.266.681.444 1.569.504 2.487 1.48.03 2.962.208 4.116.533-1.154.326-2.636.504-4.116.533-.06.919-.237 1.807-.503 2.488-.296-.681-.475-1.569-.534-2.488m22.566 3.051c.029-1.096-.533-2.784-1.393-3.554h-12.436v3.554zm0 3.553c0 1.155-.533 2.814-1.393 3.584h-12.436v-3.584zm-3.732-10.69c-2.577-2.191-6.13-3.406-10.098-3.376v3.376zm0 17.857c-2.577 2.162-6.13 3.376-10.098 3.346v-3.346zm-9.979 5.982c9.564 0 16.761-6.486 16.761-14.925 0-8.411-7.197-14.926-16.761-14.926-9.596 0-16.791 6.515-16.791 14.926 0 8.439 7.195 14.925 16.791 14.925z" fill="#004990"/><path d="m45.747 59.223c1.628 0 2.576-1.214 2.576-2.488 0-1.273-.948-2.487-2.576-2.487-1.659 0-2.577 1.214-2.577 2.487 0 1.274.918 2.488 2.577 2.488zm24.697 1.362c-1.926 0-3.554-.918-3.554-3.317v-4.264h1.628v4.353c0 1.392.859 1.836 1.926 1.836 1.065 0 1.896-.444 1.896-1.836v-4.353h1.658v4.264c0 2.399-1.659 3.317-3.554 3.317zm-33.818-7.581h.473c1.54 0 2.43 1.036 2.43 2.162 0 .799-.475 1.51-1.274 1.806.771.385 1.007 1.303 2.044 3.495h-1.838c-.889-1.807-1.037-2.725-1.836-2.962-.148-.029-.325-.059-.533-.059h-.68v3.021h-1.659v-7.463zm16.937 6.13h3.495v1.333h-5.123v-7.463h1.628zm-29.85-4.768h-3.909v1.57h3.613v1.332h-3.613v1.866h3.909v1.333h-5.566v-7.463h5.566zm40.897 0h-3.939v1.57h3.614v1.332h-3.614v1.866h3.939v1.333h-5.568v-7.463h5.568zm-32.545 0h-2.487v6.101h-1.66v-6.101h-2.487v-1.362h6.634zm46.049 6.101h-1.658v-7.463h1.42l2.489 3.109 2.516-3.109h1.393v7.463h-1.63v-4.768l-2.132 2.635h-.296l-2.102-2.635zm-64.587-2.784h-1.57v2.784h-1.628v-7.463h2.872v1.362h-1.244v1.955h1.274c.711 0 1.184-.267 1.184-.977 0-.593-.355-.978-1.214-.978v-1.362h.326c1.717 0 2.605 1.303 2.605 2.34 0 1.332-1.065 2.339-2.605 2.339zm23.099-3.317h-1.214v1.718h1.213v1.421h.001v-1.421h-.001.059c.622 0 1.155-.208 1.155-.859 0-.563-.354-.859-1.065-.859zm53.125-4.856c-4.353 0-6.544-2.843-6.544-5.805 0-2.932 2.191-5.804 6.544-5.804 1.896 0 3.317.533 4.413 1.185v2.25c-1.186-.799-2.547-1.362-4.413-1.362-2.843 0-3.997 2.043-3.997 3.731 0 1.718 1.154 3.732 3.997 3.732 1.688 0 3.258-.652 4.413-1.333v2.132c-1.451.859-2.784 1.274-4.413 1.274zm-86.856-.237h-2.457v-11.164h2.457v4.382h5.687v-4.382h2.458v11.164h-2.458v-4.768h-5.687zm76.729 0h-2.458v-11.164h2.458zm-49.306-2.014h5.212v2.014h-7.67v-11.164h2.458zm10.808 0h5.212v2.014h-7.67v-11.164h2.458zm16.643-7.137h-5.893v2.369h5.449v2.014h-5.449v2.754h5.893v2.014h-8.351v-11.164h8.351zm-33.907 0h-5.894v2.369h5.419v2.014h-5.419v2.754h5.894v2.014h-8.381v-11.164h8.381zm40.392 9.151h-2.458v-11.164h2.458l5.983 7.403v-7.403h2.458v11.164h-2.4l-6.041-7.433zm-18.524 11.342c-2.832-.007-4.277-1.9-4.277-3.88 0-1.954 1.451-3.879 4.294-3.879h.016c2.803.008 4.218 1.929 4.218 3.879 0 1.984-1.422 3.88-4.234 3.88z" fill="#008293"/></g></svg>

<?xml version="1.0" encoding="UTF-8" standalone="no"?>
<!DOCTYPE svg PUBLIC "-//W3C//DTD SVG 1.1//EN" "http://www.w3.org/Graphics/SVG/1.1/DTD/svg11.dtd">
<svg width="100%" height="100%" viewBox="0 0 560 400" version="1.1" xmlns="http://www.w3.org/2000/svg" xmlns:xlink="http://www.w3.org/1999/xlink" xml:space="preserve" xmlns:serif="http://www.serif.com/" style="fill-rule:evenodd;clip-rule:evenodd;stroke-linejoin:round;stroke-miterlimit:1.41421;">
    <g transform="matrix(3.34336,0,0,3.34336,121.856,97.342)">
        <path d="M38.461,10.893C36.981,10.864 35.499,10.686 34.344,10.36C35.499,10.035 36.981,9.857 38.461,9.827C38.52,8.909 38.698,8.021 38.994,7.34C39.26,8.021 39.438,8.909 39.498,9.827C40.978,9.857 42.46,10.035 43.614,10.36C42.46,10.686 40.978,10.864 39.498,10.893C39.438,11.812 39.261,12.7 38.995,13.381C38.699,12.7 38.52,11.812 38.461,10.893M61.027,13.944C61.056,12.848 60.494,11.16 59.634,10.39L47.198,10.39L47.198,13.944L61.027,13.944ZM61.027,17.497C61.027,18.652 60.494,20.311 59.634,21.081L47.198,21.081L47.198,17.497L61.027,17.497ZM57.295,6.807C54.718,4.616 51.165,3.401 47.197,3.431L47.197,6.807L57.295,6.807ZM57.295,24.664C54.718,26.826 51.165,28.04 47.197,28.01L47.197,24.664L57.295,24.664ZM47.316,30.646C56.88,30.646 64.077,24.16 64.077,15.721C64.077,7.31 56.88,0.795 47.316,0.795C37.72,0.795 30.525,7.31 30.525,15.721C30.525,24.16 37.72,30.646 47.316,30.646Z" style="fill:rgb(0,73,144);"/>
        <path d="M45.747,59.223C47.375,59.223 48.323,58.009 48.323,56.735C48.323,55.462 47.375,54.248 45.747,54.248C44.088,54.248 43.17,55.462 43.17,56.735C43.17,58.009 44.088,59.223 45.747,59.223ZM70.444,60.585C68.518,60.585 66.89,59.667 66.89,57.268L66.89,53.004L68.518,53.004L68.518,57.357C68.518,58.749 69.377,59.193 70.444,59.193C71.509,59.193 72.34,58.749 72.34,57.357L72.34,53.004L73.998,53.004L73.998,57.268C73.998,59.667 72.339,60.585 70.444,60.585ZM36.626,53.004L37.099,53.004C38.639,53.004 39.529,54.04 39.529,55.166C39.529,55.965 39.054,56.676 38.255,56.972C39.026,57.357 39.262,58.275 40.299,60.467L38.461,60.467C37.572,58.66 37.424,57.742 36.625,57.505L36.625,57.505C36.477,57.476 36.3,57.446 36.092,57.446L35.412,57.446L35.412,60.467L33.753,60.467L33.753,53.004L36.626,53.004ZM53.563,59.134L57.058,59.134L57.058,60.467L51.935,60.467L51.935,53.004L53.563,53.004L53.563,59.134ZM23.713,54.366L19.804,54.366L19.804,55.936L23.417,55.936L23.417,57.268L19.804,57.268L19.804,59.134L23.713,59.134L23.713,60.467L18.147,60.467L18.147,53.004L23.713,53.004L23.713,54.366ZM64.61,54.366L60.671,54.366L60.671,55.936L64.285,55.936L64.285,57.268L60.671,57.268L60.671,59.134L64.61,59.134L64.61,60.467L59.042,60.467L59.042,53.004L64.61,53.004L64.61,54.366ZM32.065,54.366L29.578,54.366L29.578,60.467L27.918,60.467L27.918,54.366L25.431,54.366L25.431,53.004L32.065,53.004L32.065,54.366ZM78.114,60.467L76.456,60.467L76.456,53.004L77.876,53.004L80.365,56.113L82.881,53.004L84.274,53.004L84.274,60.467L82.644,60.467L82.644,55.699L80.512,58.334L80.216,58.334L78.114,55.699L78.114,60.467ZM13.527,57.683L11.957,57.683L11.957,60.467L10.329,60.467L10.329,53.004L13.201,53.004L13.201,54.366L11.957,54.366L11.957,56.321L13.231,56.321C13.942,56.321 14.415,56.054 14.415,55.344C14.415,54.751 14.06,54.366 13.201,54.366L13.201,53.004L13.527,53.004C15.244,53.004 16.132,54.307 16.132,55.344C16.132,56.676 15.067,57.683 13.527,57.683ZM36.626,54.366L35.412,54.366L35.412,56.084L36.625,56.084L36.625,57.505L36.626,57.505L36.626,56.084L36.625,56.084L36.684,56.084C37.306,56.084 37.839,55.876 37.839,55.225C37.839,54.662 37.485,54.366 36.774,54.366L36.626,54.366ZM89.751,49.51C85.398,49.51 83.207,46.667 83.207,43.705C83.207,40.773 85.398,37.901 89.751,37.901C91.647,37.901 93.068,38.434 94.164,39.086L94.164,41.336C92.978,40.537 91.617,39.974 89.751,39.974C86.908,39.974 85.754,42.017 85.754,43.705C85.754,45.423 86.908,47.437 89.751,47.437C91.439,47.437 93.009,46.785 94.164,46.104L94.164,48.236C92.713,49.095 91.38,49.51 89.751,49.51ZM2.895,49.273L0.438,49.273L0.438,38.109L2.895,38.109L2.895,42.491L8.582,42.491L8.582,38.109L11.04,38.109L11.04,49.273L8.582,49.273L8.582,44.505L2.895,44.505L2.895,49.273ZM79.624,49.273L77.166,49.273L77.166,38.109L79.624,38.109L79.624,49.273ZM30.318,47.259L35.53,47.259L35.53,49.273L27.86,49.273L27.86,38.109L30.318,38.109L30.318,47.259ZM41.126,47.259L46.338,47.259L46.338,49.273L38.668,49.273L38.668,38.109L41.126,38.109L41.126,47.259ZM57.769,40.122L51.876,40.122L51.876,42.491L57.325,42.491L57.325,44.505L51.876,44.505L51.876,47.259L57.769,47.259L57.769,49.273L49.418,49.273L49.418,38.109L57.769,38.109L57.769,40.122ZM23.862,40.122L17.968,40.122L17.968,42.491L23.387,42.491L23.387,44.505L17.968,44.505L17.968,47.259L23.862,47.259L23.862,49.273L15.481,49.273L15.481,38.109L23.862,38.109L23.862,40.122ZM64.254,49.273L61.796,49.273L61.796,38.109L64.254,38.109L70.237,45.512L70.237,38.109L72.695,38.109L72.695,49.273L70.295,49.273L64.254,41.84L64.254,49.273ZM45.73,60.615C42.898,60.608 41.453,58.715 41.453,56.735C41.453,54.781 42.904,52.856 45.747,52.856L45.763,52.856C48.566,52.864 49.981,54.785 49.981,56.735C49.981,58.719 48.559,60.615 45.747,60.615L45.73,60.615Z" style="fill:rgb(0,130,147);"/>
    </g>
</svg>
